icons/outline/brand-tidal.svg

<svg xmlns="http://www.w3.org/2000/svg" width="24" height="24" viewBox="0 0 24 24" fill="none" stroke="currentColor" stroke-width="2" stroke-linecap="round" stroke-linejoin="round"><path d="M5.333 6l3.334 3.25l3.333 -3.25l3.333 3.25l3.334 -3.25l3.333 3.25l-3.333 3.25l-3.334 -3.25l-3.333 3.25l3.333 3.25l-3.333 3.25l-3.333 -3.25l3.333 -3.25l-3.333 -3.25l-3.334 3.25l-3.333 -3.25z"/></svg>

<svg xmlns="http://www.w3.org/2000/svg" width="24" height="24" fill="none" stroke="currentColor" stroke-linecap="round" stroke-linejoin="round" stroke-width="2"><path d="m5.333 6 3.334 3.25L12 6l3.333 3.25L18.667 6 22 9.25l-3.333 3.25-3.334-3.25L12 12.5l3.333 3.25L12 19l-3.333-3.25L12 12.5 8.667 9.25 5.333 12.5 2 9.25z"/></svg>
